packages/ffe-icons/icons/open/300/md/room_service.svg

<svg xmlns="http://www.w3.org/2000/svg" height="24" viewBox="0 -960 960 960" width="24"><path d="M134.616-232.31q-12.768 0-21.384-8.615-8.615-8.615-8.615-21.384t8.615-21.384q8.616-8.616 21.384-8.616h690.768q12.768 0 21.384 8.616 8.615 8.615 8.615 21.384t-8.615 21.384q-8.616 8.615-21.384 8.615H134.616Zm5.385-107.691v-24.615q0-122.999 79.462-215.037 79.462-92.038 200.538-113.423v-13.846q0-24.538 17.731-42.268 17.73-17.731 42.268-17.731t42.268 17.731q17.731 17.73 17.731 42.268v13.846q121.692 21.385 200.846 113.423 79.154 92.038 79.154 215.037v24.615H140.001ZM202.385-400h555.23q-11.692-100.923-91.461-170.077T480-639.231q-106.385 0-185.846 69.154Q214.692-500.923 202.385-400ZM480-400Z"/></svg>

<svg xmlns="http://www.w3.org/2000/svg" height="24" viewBox="0 -960 960 960" width="24"><path d="M134.62-232.31q-12.77 0-21.39-8.62-8.61-8.61-8.61-21.38t8.61-21.38q8.62-8.62 21.39-8.62h690.76q12.77 0 21.39 8.62 8.61 8.61 8.61 21.38t-8.61 21.38q-8.62 8.62-21.39 8.62H134.62ZM140-340v-24.62q0-123 79.46-215.03Q298.92-671.69 420-693.08v-13.84q0-24.54 17.73-42.27 17.73-17.73 42.27-17.73 24.54 0 42.27 17.73Q540-731.46 540-706.92v13.84q121.69 21.39 200.84 113.43Q820-487.62 820-364.62V-340H140Zm62.38-60h555.24q-11.7-100.92-91.47-170.08-79.77-69.15-186.15-69.15-106.38 0-185.85 69.15-79.46 69.16-91.77 170.08ZM480-400Z"/></svg>
